X:44
T: HERZ MIS HERZ WARUM SO TRURIG
N: B0530
O: Europa, Mitteleuropa, Schweiz
N: modulierend
R: Wander -, Heimat - Lied
M: 6/8
L: 1/16
K: G
 | _B4B2A4A2 | G4A2F4D2 |
_B4B2A4A2 | G4A2F6 |
B4B2c4c2 | c4edB4G2 |
d4B2A4ec | B4A2G6

@@@ Tune index: 2262
